img/Icons/footprint.svg

<svg width="48" height="48" viewBox="0 0 48 48" fill="none" xmlns="http://www.w3.org/2000/svg">
<path d="M32.603 16.9262C27.8143 11.4007 16.4169 11.7858 15.6418 16.2398C14.9984 19.9501 18.8923 22.0254 20.7545 23.9496C22.9079 26.1742 23.2736 29.7682 21.4981 32.2195C20.7579 33.2373 16.3384 37.7087 17.6527 42.1243C18.3202 44.3644 19.8234 45.3681 21.7893 45.7756C28.3273 47.1364 29.0171 41.949 29.085 39.6469C29.1455 37.4868 29.4681 35.3872 30.3576 33.4088C32.5405 28.4452 35.8502 20.6748 32.603 16.9262Z" stroke="currentColor" stroke-width="2"/>
<path d="M16.0668 2.0216C17.5458 1.78423 19.0538 3.53015 19.437 5.91892C19.8202 8.30818 18.9361 10.4387 17.459 10.6761C15.9801 10.9135 14.4734 9.16757 14.0888 6.7788C13.7071 4.38954 14.5912 2.25898 16.0668 2.0216ZM24.7077 6.53949C24.7978 8.21274 24.0348 9.61326 23.0015 9.67042C21.9663 9.72613 21.0565 8.41524 20.9645 6.74198C20.8724 5.06873 21.6388 3.66821 22.6706 3.61105C23.704 3.55582 24.6157 4.86672 24.7077 6.53949ZM29.0488 7.74623C29.1234 9.10363 28.5028 10.243 27.6618 10.2881C26.8208 10.3331 26.084 9.27027 26.0094 7.91094C25.9348 6.5516 26.5539 5.41414 27.3949 5.36763C28.2359 5.32064 28.9761 6.38689 29.0488 7.74623ZM31.7258 9.75375C31.6546 10.7575 31.0931 11.536 30.4721 11.4909C29.8515 11.4478 29.4058 10.5981 29.477 9.59436C29.5482 8.59061 30.1082 7.81211 30.7308 7.85716C31.3494 7.90076 31.797 8.74999 31.7258 9.75375ZM33.6224 12.1222C33.5667 12.9229 33.1181 13.544 32.622 13.5091C32.1279 13.4728 31.7708 12.7951 31.8261 11.9938C31.8832 11.193 32.3323 10.572 32.8284 10.6068C33.3244 10.6432 33.6795 11.3228 33.6224 12.1222Z" stroke="currentColor" stroke-width="2"/>
</svg>

<svg xmlns="http://www.w3.org/2000/svg" viewBox="0 0 48 48"><defs><style>.cls-1{fill:none;stroke:#389583;stroke-width:2px;}</style></defs><title>footprint</title><g id="Layer_2" data-name="Layer 2"><path class="cls-1" d="M32.62,16.93c-4.79-5.53-16.18-5.14-17-.69C15,20,18.91,22,20.77,24a6.58,6.58,0,0,1,.75,8.27c-.74,1-5.16,5.49-3.85,9.9a5,5,0,0,0,4.14,3.66C28.35,47.14,29,42,29.1,39.65a16.09,16.09,0,0,1,1.28-6.24C32.56,28.45,35.87,20.67,32.62,16.93Z"/><path class="cls-1" d="M16.09,2c1.47-.24,3,1.51,3.37,3.9s-.51,4.52-2,4.76-3-1.51-3.37-3.9S14.61,2.26,16.09,2Zm8.64,4.52c.09,1.67-.68,3.07-1.71,3.13s-1.94-1.25-2-2.93.68-3.07,1.71-3.13S24.63,4.87,24.73,6.54Zm4.34,1.21c.07,1.35-.55,2.49-1.39,2.54S26.1,9.27,26,7.91s.54-2.5,1.38-2.54S29,6.39,29.07,7.75Zm2.67,2c-.07,1-.63,1.79-1.25,1.74s-1.07-.89-1-1.9.63-1.78,1.25-1.73S31.82,8.75,31.74,9.75Zm1.9,2.37c0,.8-.5,1.42-1,1.39s-.85-.71-.8-1.52.51-1.42,1-1.38S33.7,11.32,33.64,12.12Z"/></g></svg>
